X: 22159
T: L'Air Mignonne
R: barndance
M: 4/4
K: Gmajor
DGA|:B3/2B/ Bd BAGA|B3/2B/ Bd BAGA|E3G D3 B|AGFG ADGA|
B3/2B/ Bd BAGA|B3/2B/ Bd BAGA|E3G D3 B|AGFA GABd:|
|:e/ee/eg/a/ edBd|e/ee/eg/a/ edBG|E3G D3B|AGFG ADBd|
e/ee/eg/a/ edBd|e/ee/eg/a/ edBG|E3G D3B|1 AGFA GABd:|2 AGFA GDGA||

